!!!!SEGMENT: pl-kk--kk-i-7--051-001_palestrina-giovanni-pierluigi-da--missa-de-b-virgine-maria-kyrie.krn
!!!cenid: 16xx:867
!!!COM: Palestrina, Giovanni Pierluigi da
!!!COM-rismid: pe1904
!!!CDT: ~1525-1594/02/02
!!!CNT: Italian
!!!OPR: Missa de B Virgine Maria
!!!OTL: Kyrie
!!!OMV: 001
!!!PDT:
!!!AGN: Sacred; Mass
!!!SMS-siglum: PL-Kk
!!!SMS-shelfmark: Kk.I.7
!!!SMS-shelfwork: 051-001 M
!!!SMS-variant:
!!!SMS-altvar:
!!!NIFC-rismid: 300258128
!!!URL-scan: http://repozytorium.nifc.pl/skany/pl-kk-nut--i-7
!!!ONB-nifc: UWAGA: C (skan 0047-0049, s.88-90), A (0131-0132, s.82-85), T(0207-0209, s.77-80), B(0296-0297, s.78-80). Części Mszy: 1. Kyrie, 2. Et in terra, 3. Sanctus, 4. Agnus Dei. "Benedictus" partii S znajduje się na luźnej kartce włożonej między strony 88-89. "Agnus II" rozpisane na 5 głosów. Dodatkowy głos zapisany w księdze A na stronie 85
!!!key:
**kern	**text	**kern	**text	**kern	**text	**kern	**text
*part4	*part4	*part3	*part3	*part2	*part2	*part1	*part1
*staff4	*staff4	*staff3	*staff3	*staff2	*staff2	*staff1	*staff1
*Ibass	*	*Itenor	*	*Ialto	*	*Isoprn	*
*I"BASSVS.	*	*I"TENOR.	*	*I"ALTVS.	*	*I"CANTVS.	*
*I'B	*	*I'T	*	*I'A	*	*I'S	*
*clefC4	*	*clefC3	*	*clefC2	*	*clefG2	*
*k[b-]	*	*k[b-]	*	*k[b-]	*	*k[b-]	*
*g:	*	*g:	*	*g:	*	*g:	*
*M2/1	*	*M2/1	*	*M2/1	*	*M2/1	*
*met(C|)	*	*met(C|)	*	*met(C|)	*	*met(C|)	*
=1-	=1-	=1-	=1-	=1-	=1-	=1-	=1-
!LO:TX:a:t=7.	!	!	!	!	!	!	!
!	!	!	!	!LO:TX:a:t=P:problem:w źródle znaki przykluczowe b- B-, zapisane jeden nad drugim w pionie	!	!	!
!	!	!	!	!LO:TX:t=P:problem:kreska pseudotaktowa	!	!	!
00r	.	00r	.	1r	.	1g	Ky-
.	.	.	.	1g	Ky-	1b-	-ri-
=2-	=2-	=2-	=2-	=2-	=2-	=2-	=2-
*	*	*	*	*2\right	*	*	*
!	!	!	!	!	!	!LO:TX:t=P:problem:kreska pseudotaktowa	!
.	.	.	.	2f\	-ri-	1cc	-e
.	.	.	.	2e\	-e	.	.
.	.	.	.	4d/	e-	1dd	e-
.	.	.	.	4e/	.	.	.
.	.	.	.	4f/	.	.	.
.	.	.	.	4g/	.	.	.
=3-	=3-	=3-	=3-	=3-	=3-	=3-	=3-
*	*	*	*	*	*	*2\right	*
!	!	!LO:TX:t=P:problem:kreska pseudotaktowa	!	!	!	!	!
0r	.	0rc	.	2a\	.	2cc\	-lei-
.	.	.	.	1g	-lei-	2b-\	.
!	!	!	!	!	!	!LO:TX:t=P:problem:kreska pseudotaktowa	!
.	.	.	.	.	.	1a	.
.	.	.	.	2f\	.	.	.
=4-	=4-	=4-	=4-	=4-	=4-	=4-	=4-
!LO:TX:t=P:problem:kreska pseudotaktowa	!	!	!	!	!	!	!
1r	.	1G	Ky-	1.g	-son	4g/	.
.	.	.	.	.	.	4a/	.
.	.	.	.	.	.	4b-/	.
.	.	.	.	.	.	4cc/	.
!	!	!	!	!	!	!LO:TX:t=P:problem:kreska pseudotaktowa	!
1G	Ky-	1B-	-ri-	.	.	1dd	-son
.	.	.	.	2b-\	e-	.	.
=5-	=5-	=5-	=5-	=5-	=5-	=5-	=5-
!	!	!LO:TX:t=P:problem:kreska pseudotaktowa	!	!	!	!	!
2F/	-ri-	1c	-e	2a\	-lei-	1rff	.
!LO:TX:t=P:problem:kreska pseudotaktowa	!	!	!	!LO:TX:t=P:problem:kreska pseudotaktowa	!	!	!
2E/	-e	.	.	2g\	.	.	.
*	*	*	*	*	*	*	*ij
4D/	e-	1d	e-	2f\	.	1ff	Ky-
4E/	.	.	.	.	.	.	.
4F/	.	.	.	1a\	.	.	.
4G/	.	.	.	.	.	.	.
=6-	=6-	=6-	=6-	=6-	=6-	=6-	=6-
*2\right	*	*2\right	*	*	*	*	*
2A\	.	2c/	-le-	.	.	2ee\	-ri-
2B-\	-lei-	2B-/	.	2d/	.	2.dd\	-e
1c	.	1A	-i-	2e\	.	.	.
.	.	.	.	.	.	4cc\	e-
.	.	.	.	2f\	.	4cc\	-lei-
.	.	.	.	.	.	8b-\L	.
!	!	!	!	!	!	!LO:TX:t=P:problem:kreska pseudotaktowa	!
.	.	.	.	.	.	8a\J	.
=7-	=7-	=7-	=7-	=7-	=7-	=7-	=7-
!	!	!LO:TX:t=P:problem:kreska pseudotaktowa	!	!	!	!	!
1d	.	1G	-son	1.g	.	1b-	.
!LO:TX:t=P:problem:kreska pseudotaktowa	!	!	!	!	!	!LO:TX:t=P:problem:kreska pseudotaktowa	!
1D	-son	2r	.	.	.	0a	-son
*	*	*	*	*	*	*	*Xij
*	*	*	*ij	*	*	*	*
!	!	!	!	!LO:TX:t=P:problem:kreska pseudotaktowa	!	!	!
.	.	1d\	Ky-	2f\	-son	.	.
=8-	=8-	=8-	=8-	=8-	=8-	=8-	=8-
*	*ij	*	*	*	*	*	*
1F	Ky-	.	.	2rg	.	.	.
.	.	1c	-ri-	1a	Ky-	.	.
1G	-ri-	.	.	.	.	2r	.
!	!	!	!	!LO:TX:t=P:problem:kreska pseudotaktowa	!	!	!
.	.	2B-/	-e	2g\	-ri-	1dd\	Ky-
=9-	=9-	=9-	=9-	=9-	=9-	=9-	=9-
*	*	*lig	*	*	*	*	*
1A	-e	1c	e-	2f\	-e	.	.
!	!	!	!	!	!	!LO:TX:t=P:problem:kreska pseudotaktowa	!
.	.	.	.	2.e/	e-	2cc\	-ri-
2G/	e-	1d	.	.	.	2b-/	-e
.	.	.	.	4d/	.	.	.
!LO:TX:t=P:problem:kreska pseudotaktowa	!	!	!	!	!	!	!
2F/	.	.	.	1d/	.	2.a/	e-
*	*	*Xlig	*	*	*	*	*
=10-	=10-	=10-	=10-	=10-	=10-	=10-	=10-
*	*	*lig	*	*	*	*	*
1E	-lei-	1G	-lei-	.	.	.	.
.	.	.	.	.	.	4g/	.
!	!	!	!	!LO:TX:a:t=P:problem:# above	!	!	!
.	.	.	.	2c#X/	.	1g	-lei-
1D	.	1A	.	1d	-lei-	.	.
!	!	!	!	!	!	!LO:TX:a:t=P:problem:# above	!
.	.	.	.	.	.	2f#X/	.
*	*	*Xlig	*	*	*	*	*
=11-	=11-	=11-	=11-	=11-	=11-	=11-	=11-
0G;>	-son	0G;>	-son	0d;>	-son	0g;>	-son
*	*Xij	*	*Xij	*	*	*	*
=12||	=12||	=12||	=12||	=12||	=12||	=12||	=12||
*M2/1	*	*M2/1	*	*M2/1	*	*M2/1	*
*met(C|)	*	*met(C|)	*	*met(C|)	*	*met(C|)	*
*k[b-]	*	*	*	*	*	*	*
!	!	!	!	!	!	!LO:TX:a:t=5.	!
1rA	.	0d	Chri-	2rd	.	00r	.
.	.	.	.	2d/	Chri-	.	.
1D	Chri-	.	.	2.f\	-ste	.	.
!	!	!	!	!LO:TX:t=P:problem:kreska pseudotaktowa	!	!	!
.	.	.	.	4g\	.	.	.
=13-	=13-	=13-	=13-	=13-	=13-	=13-	=13-
*	*	*lig	*	*	*	*	*
2F/	-ste	1d	-ste	2a\	e-	.	.
2G/	e-	.	.	2b-\	.	.	.
2.A\	-lei-	1c	.	1cc	-lei-	.	.
4B-\	.	.	.	.	.	.	.
*	*	*Xlig	*	*	*	*	*
=14-	=14-	=14-	=14-	=14-	=14-	=14-	=14-
!	!	!	!	!LO:TX:t=P:problem:kreska pseudotaktowa	!	!LO:TX:t=P:problem:kreska pseudotaktowa	!
1c	.	1.e	e-	1g	-son	1r	.
!	!	!	!	!LO:LB:g=original	!	!	!
!LO:TX:t=P:problem:kreska pseudotaktowa	!	!	!	!	!	!	!
0G	-son	.	.	1b-	Chri-	2rg	.
.	.	2d\	-lei-	.	.	2g/	Chri-
=15-	=15-	=15-	=15-	=15-	=15-	=15-	=15-
!	!	!LO:TX:t=P:problem:kreska pseudotaktowa	!	!	!	!	!
.	.	1d	-son	2g\	.	2.b-\	-ste
.	.	.	.	1b-	-ste	.	.
!	!	!	!	!	!	!LO:TX:t=P:problem:kreska pseudotaktowa	!
.	.	.	.	.	.	4cc\	.
0rG	.	1r	.	.	.	2dd\	.
.	.	.	.	4a\	.	2ee\	e-
.	.	.	.	4g\	.	.	.
=16-	=16-	=16-	=16-	=16-	=16-	=16-	=16-
*	*	*	*ij	*	*	*	*
.	.	0d	Chri-	2a\	.	1ff	-lei-
!	!	!	!	!LO:LB:g=original	!	!	!
.	.	.	.	2d/	.	.	.
*	*ij	*	*	*	*	*	*
!	!	!	!	!	!	!LO:TX:t=P:problem:kreska pseudotaktowa	!
1D	Chri-	.	.	2.f\	e-	1dd	-son
.	.	.	.	4g\	.	.	.
!	!	!	!	!	!	!LO:LB:g=original	!
=17-	=17-	=17-	=17-	=17-	=17-	=17-	=17-
*	*	*lig	*	*	*	*	*
2F/	-ste	1d	-ste	2a\	.	0r	.
2G/	.	.	.	2b-\	.	.	.
2.A\	.	1c	.	1cc	-lei-	.	.
4B-\	e-	.	.	.	.	.	.
*	*	*Xlig	*	*	*	*	*
=18-	=18-	=18-	=18-	=18-	=18-	=18-	=18-
!	!	!	!	!LO:TX:t=P:problem:kreska pseudotaktowa	!	!LO:TX:t=P:problem:kreska pseudotaktowa	!
1c	-lei-	1.e	e-	1g	-ſon	1r	.
!LO:TX:t=P:problem:kreska pseudotaktowa	!	!	!	!	!	!	!
0G	-son	.	.	1b-	.	2rg	.
*	*Xij	*	*	*	*	*	*
.	.	2d\	lei-	.	.	2g/	Chri-
=19-	=19-	=19-	=19-	=19-	=19-	=19-	=19-
!	!	!LO:TX:t=P:problem:kreska pseudotaktowa	!	!	!	!	!
.	.	1d	-son	2g\	X-	2.b-\	-ste
*	*	*	*Xij	*	*	*	*
.	.	.	.	1b-	-te	.	.
!	!	!	!	!	!	!LO:TX:t=P:problem:kreska pseudotaktowa	!
.	.	.	.	.	.	4cc\	.
!LO:LB:g=original	!	!	!	!	!	!	!
00r	.	2r	.	.	.	2dd\	.
!	!	!LO:TX:t=P:problem:kreska pseudotaktowa	!	!	!	!	!
.	.	2c\	Chri-	4a\	.	2ee\	.
!	!	!	!	!LO:TX:t=P:problem:kreska pseudotaktowa	!	!	!
.	.	.	.	4g\	.	.	.
!	!	!LO:LB:g=original	!	!	!	!	!
=20-	=20-	=20-	=20-	=20-	=20-	=20-	=20-
.	.	2d\	.	2f\	e-	2ff\	.
!	!	!	!	!	!	!LO:TX:t=P:problem:kreska pseudotaktowa	!
.	.	2B-,/	-ste	2.g\	.	2dd\	e-
.	.	2c\	e-	.	.	2ee-X\	.
.	.	.	.	4a\	.	.	.
!	!	!	!	!LO:TX:t=P:problem:kreska pseudotaktowa	!	!	!
.	.	2d\	-lei-	[<2b-\	.	2dd\	.
=21-	=21-	=21-	=21-	=21-	=21-	=21-	=21-
*	*	*	*	*	*	*lig	*
!	!	!	!	!LO:N:xstem:cue	!	!	!
.	.	1e	.	4b-]	.	1g	-lei-
.	.	.	.	4a\	.	.	.
.	.	.	.	1g	.	.	.
!LO:TX:t=P:problem:kreska pseudotaktowa	!	!LO:TX:t=P:problem:kreska pseudotaktowa	!	!	!	!	!
1rA	.	0d	-son	.	.	1a	.
.	.	.	.	2f\	.	.	.
*	*	*	*	*	*	*Xlig	*
=22-	=22-	=22-	=22-	=22-	=22-	=22-	=22-
1G	X-	.	.	4g\	.	1b-	-son
.	.	.	.	4c/	.	.	.
.	.	.	.	2.g\	-lei-	.	.
!	!	!	!	!	!	!LO:TX:t=P:problem:kreska pseudotaktowa	!
2A/	-te	0r	.	.	.	1a	.
.	.	.	.	4f\	.	.	.
2F/	e-	.	.	1f\	.	.	.
=23-	=23-	=23-	=23-	=23-	=23-	=23-	=23-
1c	-lei-	.	.	.	.	2rg	.
*	*	*	*	*	*	*	*ij
.	.	.	.	2e\	.	2g/	Chri-
!	!	!LO:TX:t=P:problem:kreska pseudotaktowa	!	!	!	!	!
2A,\	-son	1r	.	2f\	.	2a/	.
1B-\	.	.	.	2d/	-son	4g/	.
!	!	!	!	!	!	!LO:TX:t=P:problem:kreska pseudotaktowa	!
.	.	.	.	.	.	4f/	.
=24-	=24-	=24-	=24-	=24-	=24-	=24-	=24-
!	!	!	!	!LO:TX:t=P:problem:kreska pseudotaktowa	!	!	!
.	.	2r	.	1c	.	2g/	-ste
*	*	*	*ij	*	*	*	*
2A\	e-	2c\	Chri-	.	.	2a/	e-
1G	-lei-	2d\	.	2r	.	1b-	-lei-
*	*	*	*	*	*ij	*	*
.	.	2B-/	-ste	2g\	X-	.	.
=25-	=25-	=25-	=25-	=25-	=25-	=25-	=25-
!LO:TX:t=P:problem:kreska pseudotaktowa	!	!	!	!	!	!	!
1F	-son	2c\	e-	2a\	-te	2.a/	.
.	.	2d\	-lei-	2f\	e-	.	.
.	.	.	.	.	.	4b-/	.
!	!	!	!	!	!	!LO:TX:t=P:problem:kreska pseudotaktowa	!
1C	X-	1e	.	2g\	.	1cc	-son
*	*	*	*	*	*	*	*Xij
!	!	!	!	!LO:TX:t=P:problem:kreska pseudotaktowa	!	!	!
.	.	.	.	2a\	.	.	.
=26-	=26-	=26-	=26-	=26-	=26-	=26-	=26-
1G	-te	00.d;>	-son	2.b-\	.	2rg	.
*	*	*	*Xij	*	*	*	*
.	.	.	.	.	.	2g/	Chri-
.	.	.	.	8a\L	.	.	.
.	.	.	.	8g\J	.	.	.
1D	e-	.	.	2f\	.	2a/	.
!	!	!	!	!	!	!LO:TX:t=P:problem:kreska pseudotaktowa	!
.	.	.	.	2a\	.	2f/	-ste
=27-	=27-	=27-	=27-	=27-	=27-	=27-	=27-
2G/	-lei-	.	.	2b-\	.	2g/	e-
2F/	.	.	.	2a\	.	2a/	-lei-
1G	.	.	.	1g	lei-	1b-	.
=28-	=28-	=28-	=28-	=28-	=28-	=28-	=28-
0D;>	-son.	.	.	0f#X;>	-son	0a;>	-son
*	*	*	*	*	*Xij	*	*
!	!	!	!	!LO:PB:g=original	!	!	!
=29||	=29||	=29||	=29||	=29||	=29||	=29||	=29||
*M2/1	*	*M2/1	*	*M2/1	*	*M2/1	*
*met(C|)	*	*met(C|)	*	*met(C|)	*	*met(C|)	*
*k[b-]	*	*	*	*k[b-]	*	*	*
!	!	!	!	!LO:TX:a:t=P:problem:w źródle znaki przykluczowe b- B-, zapisane jeden nad drugim w pionie	!	!	!
1G	Ky-	0d	Ky-	00r	.	00r	.
2B-\	-ri-	.	.	.	.	.	.
2B-\	-e	.	.	.	.	.	.
=30-	=30-	=30-	=30-	=30-	=30-	=30-	=30-
*	*	*lig	*	*	*	*	*
1A	e-	1f	-ri-	.	.	.	.
2G/	-lei-	1g	.	.	.	.	.
2.c\	.	.	.	.	.	.	.
*	*	*Xlig	*	*	*	*	*
=31-	=31-	=31-	=31-	=31-	=31-	=31-	=31-
!	!	!	!	!LO:TX:t=P:problem:kreska pseudotaktowa	!	!LO:TX:t=P:problem:kreska pseudotaktowa	!
.	.	1g	-e	0r	.	0rb	.
4B-\	.	.	.	.	.	.	.
4B-\	.	.	.	.	.	.	.
8A\L	.	.	.	.	.	.	.
8G\J	.	.	.	.	.	.	.
1A	.	1f	e-	.	.	.	.
=32-	=32-	=32-	=32-	=32-	=32-	=32-	=32-
!LO:TX:t=P:problem:kreska pseudotaktowa	!	!	!	!	!	!	!
0G	-son	0g	-lei-	2rg	.	0dd	Ky-
.	.	.	.	2g\	Ky-	.	.
.	.	.	.	2b-\	-ri-	.	.
.	.	.	.	2b-\	-e	.	.
=33-	=33-	=33-	=33-	=33-	=33-	=33-	=33-
!	!	!LO:TX:t=P:problem:kreska pseudotaktowa	!	!	!	!	!
00r	.	1d	-son	1a	e-	1ff	-ri-
!	!	!	!	!	!	!LO:TX:t=P:problem:kreska pseudotaktowa	!
.	.	2r	.	2g\	.	1gg	-e-
*	*	*	*ij	*	*	*	*
.	.	2c\	Ky-	2.cc\	-lei-	.	.
!	!	!	!	!	!	!LO:LB:g=original	!
=34-	=34-	=34-	=34-	=34-	=34-	=34-	=34-
.	.	2e-X\	-rie	.	.	1gg	-lei-
.	.	.	.	4b-\	.	.	.
.	.	2e-\	e-	4b-\	.	.	.
.	.	.	.	8a\L	.	.	.
.	.	.	.	8g\J	.	.	.
.	.	1d	-lei-	1a	.	1ff	.
=35-	=35-	=35-	=35-	=35-	=35-	=35-	=35-
!	!	!	!	!LO:TX:t=P:problem:kreska pseudotaktowa	!	!	!
2rG	.	2G,/	-son	1g	-son	1gg	.
*	*	*	*Xij	*	*	*	*
2G/	Ky-	2.g\	e-	.	.	.	.
!	!	!	!	!	!	!LO:TX:t=P:problem:kreska pseudotaktowa	!
2B-\	-ri-	.	.	2r	.	1dd	-son
.	.	4f\	.	.	.	.	.
2B-\	-e-	4f\	.	1d/	Ky-	.	.
.	.	8e-\L	.	.	.	.	.
.	.	8d\J	.	.	.	.	.
=36-	=36-	=36-	=36-	=36-	=36-	=36-	=36-
!LO:TX:t=P:problem:kreska pseudotaktowa	!	!	!	!	!	!	!
!LO:SIC:v:t=custos D	!	!	!	!	!	!	!
1A	-lei-	1e-	-lei-	.	.	0rgg	.
.	.	.	.	2c/	-ri-	.	.
!LO:LB:g=original	!	!	!	!	!	!	!
*	*	*lig	*	*	*	*	*
2D/	-son	1d	.	1f	-e	.	.
2.d\	e-	.	.	.	.	.	.
=37-	=37-	=37-	=37-	=37-	=37-	=37-	=37-
!	!	!	!	!	!	!LO:TX:t=P:problem:kreska pseudotaktowa	!
.	.	1A	.	2e\	.	1rgg	.
4c\	-lei-	.	.	.	.	.	.
4c\	.	.	.	1a	.	.	.
8B-\L	.	.	.	.	.	.	.
!LO:TX:t=P:problem:kreska pseudotaktowa	!	!	!	!	!	!	!
8A\J	.	.	.	.	.	.	.
*	*	*Xlig	*	*	*	*	*
!	!	!LO:TX:t=P:problem:kreska pseudotaktowa	!	!	!	!	!
1B-	.	1d	-son	.	.	2r	.
.	.	.	.	2g\	.	1dd\	Ky-
=38-	=38-	=38-	=38-	=38-	=38-	=38-	=38-
2A,/	-son	0r	.	2f\	.	.	.
!	!	!	!	!LO:TX:t=P:problem:kreska pseudotaktowa	!	!LO:TX:t=P:problem:kreska pseudotaktowa	!
2A/	Ky-	.	.	2e\	.	2cc\	-ri-
2G/	-ri-	.	.	2g\	e-	2b-X\	-e
2F/	-e-	.	.	2.a\	.	1cc\	e-
=39-	=39-	=39-	=39-	=39-	=39-	=39-	=39-
!	!	!LO:TX:t=P:problem:kreska pseudotaktowa	!	!	!	!	!
1G	-lei-	1r	.	.	.	.	.
.	.	.	.	4g\	.	.	.
.	.	.	.	1g	.	2b-\	.
!LO:TX:t=P:problem:kreska pseudotaktowa	!	!	!	!	!	!	!
1D	-son	2rA	.	.	.	1a	.
*	*	*	*ij	*	*	*	*
.	.	1d\	e-	4f\	.	.	.
.	.	.	.	4e\	.	.	.
=40-	=40-	=40-	=40-	=40-	=40-	=40-	=40-
!	!	!	!	!	!	!LO:TX:t=P:problem:kreska pseudotaktowa	!
0r	.	.	.	2f\	-lei-	1a	.
!	!	!	!	!LO:TX:t=P:problem:kreska pseudotaktowa	!	!	!
.	.	2c/	.	2e\	-son	.	.
.	.	2B-/	.	2d/	e-	0g	-lei-
.	.	1c\	.	2.e/	.	.	.
=41-	=41-	=41-	=41-	=41-	=41-	=41-	=41-
2r	.	.	.	.	.	.	.
.	.	.	.	4c/	.	.	.
1d	Ky-	2B-/	.	2d/	.	.	.
!	!	!	!	!	!	!LO:TX:t=P:problem:kreska pseudotaktowa	!
.	.	1A	-lei-	2.e\	.	1a	-son
!LO:TX:t=P:problem:kreska pseudotaktowa	!	!	!	!	!	!	!
2c\	-ri-	.	.	.	.	.	.
.	.	.	.	4f\	.	.	.
=42-	=42-	=42-	=42-	=42-	=42-	=42-	=42-
2B-\	-e	2G/	-son	2g\	.	1rgg	.
1c	e-	2.g\	e-	2e\	.	.	.
.	.	.	.	1g	-lei-	2r	.
.	.	4f\	.	.	.	.	.
2B-\	.	2d\	.	.	.	1dd\	Ky-
=43-	=43-	=43-	=43-	=43-	=43-	=43-	=43-
!	!	!	!	!LO:TX:t=P:problem:kreska pseudotaktowa	!	!	!
2A/	.	2.eny\	.	1a	-son	.	.
!LO:TX:t=P:problem:kreska pseudotaktowa	!	!	!	!	!	!LO:TX:t=P:problem:kreska pseudotaktowa	!
2A/	-lei-	.	.	.	.	2cc\	-ri-
.	.	4f\	.	.	.	.	.
2G,/	-son	2g\	.	2r	.	2b-\	-e
*	*ij	*	*	*	*ij	*	*
1F/	Ky-	2c/	-lei-	1a\	Ky-	1cc\	.
=44-	=44-	=44-	=44-	=44-	=44-	=44-	=44-
!	!	!LO:TX:t=P:problem:kreska pseudotaktowa	!	!	!	!	!
!	!	!LO:SIC:v:t=custos d	!	!	!	!	!
.	.	1d	-son	.	.	.	.
*	*	*	*Xij	*	*	*	*
2G/	-ri-	.	.	2g\	-ri-	2b-\	.
!	!	!LO:LB:g=original	!	!	!	!	!
2D/	-e	1rg	.	2f\	-e	2a/	.
2E-X/	e-	.	.	1g\	e-	2g/	.
=45-	=45-	=45-	=45-	=45-	=45-	=45-	=45-
!LO:TX:t=P:problem:kreska pseudotaktowa	!	!	!	!	!	!LO:TX:t=P:problem:kreska pseudotaktowa	!
1D	.	2r	.	.	.	1a	.
.	.	1d	Ky-	2f\	.	.	.
1A	.	.	.	2.e/	.	2.a/	e-
!	!	!LO:TX:t=P:problem:kreska pseudotaktowa	!	!	!	!	!
.	.	2c/	-ri-	.	.	.	.
.	.	.	.	4c/	.	8g/L	.
.	.	.	.	.	.	8a/J	.
=46-	=46-	=46-	=46-	=46-	=46-	=46-	=46-
2G/	.	2B-/	-e	4d/	.	2b-/	-lei-
.	.	.	.	4e/	.	.	.
2F/	.	1c	e-	2f\	.	2.a/	.
1G	.	.	.	0.d	-lei-	.	.
.	.	.	.	.	.	4g/	.
.	.	2B-/	.	.	.	1g/	.
=47-	=47-	=47-	=47-	=47-	=47-	=47-	=47-
0D	-lei-	0A	-lei-	.	.	.	.
.	.	.	.	.	.	4f#X/	.
.	.	.	.	.	.	4e/	.
!	!	!	!	!	!	!LO:TX:a:t=P:problem:# above	!
.	.	.	.	.	.	1f#	.
.	.	.	.	.	-son	.	.
=48-	=48-	=48-	=48-	=48-	=48-	=48-	=48-
0G;>	-son	0Bn;>	-son.	0d;>	-son	0g;>	-son.
*	*Xij	*	*	*	*Xij	*	*
==	==	==	==	==	==	==	==
*-	*-	*-	*-	*-	*-	*-	*-
!!!system-decoration: [(s1,s2,s3,s4)]
!!!RDF**kern: > = above
!!!RDF**kern: < = below
!!!EED: Antoni Szymański
!!!EST: 2021-03-16
!!!AIN: 1 alto 1 bass 1 soprn 1 tenor
!!!ENC: Berenika Jozajtis
!!!END: 2021-03-01
